images/bullet.svg

<svg xmlns="http://www.w3.org/2000/svg" xmlns:xlink="http://www.w3.org/1999/xlink" viewBox="101.833 251.897 451.28 359.997" width="300" height="238.77"><defs><path d="M313.09 253.02c22.09-.47 22.73.42 44.17 2.75s45.96 7.11 57.02 10.44c15.33 4.66 30.53 10.8 44.13 19.46 20.26 12.13 36.65 30.66 45.85 52.52 4.8 12 9.2 24.93 7.47 38.13-1.6 16.66-4 33.32-7.34 49.72-7.73 36.92-28.39 71.85-59.98 92.91-21.73 14.26-46.79 22.26-72.38 26.39-26.26 4.4-53.06 4.53-79.58 2.8-25.33-1.73-50.66-6.13-74.12-16-22.93-9.86-42.92-28.12-51.45-51.98-1.2-2.94-1.34-6.53-4.27-8.4-20.13-17.86-32.79-42.66-38.52-68.65-4.8-23.46-.67-48.52 10.53-69.58 12-22.53 32.52-39.06 54.92-50.52 16.53-8 33.99-14 51.72-18.4-3.26-2.29 49.74-11.12 71.83-11.59z" id="a"/><path d="M336.57 258.34c16.53.27 33.06 2.8 49.32 5.47 27.73 5.07 55.19 14.13 78.11 30.79 22.93 16.53 38.93 42.26 43.73 70.12.13 21.99-3.47 44.52-13.2 64.38-6.8 14.53-17.06 27.33-29.33 37.73-16.66 13.59-36.25 23.32-56.78 29.59-21.06 6.93-43.19 10.13-65.19 12.4-25.86 2.53-51.98 2.4-77.71-.67-25.59-3.07-51.05-9.2-73.72-21.46-18.79-10-35.45-24.4-46.65-42.66-6.4-10.26-11.07-21.46-14.66-33.06-2.14-8.53-4.94-17.33-4.14-26.39-.26-16.66 4-33.06 11.47-47.99 13.06-24.66 36.39-41.99 61.32-53.45 31.45-13.6 65.45-20.66 99.3-24.26 12.67-1.6 25.47-1.47 38.13-.54z" id="b"/><path d="M383.36 282.34c22.93 4.13 46.39 11.6 63.72 27.86 11.06 10.26 18.66 23.99 22.26 38.52 1.46 7.73 4.4 15.87 1.46 23.73-4.8 21.86-16.53 42.26-33.32 57.05-17.73 15.33-39.86 24.66-62.52 29.6-14.8 3.73-29.99 5.19-45.19 6.13-9.33.66-18.53-.8-27.73-1.34-30.52-3.33-61.58-7.46-89.84-20.12-16.26-7.2-31.59-18.4-40.12-34.53-7.74-15.33-7.74-33.86-2.14-49.99 5.87-17.19 18.8-30.92 33.86-40.65 21.86-14.8 47.32-22.8 72.65-28.93 17.86-4.27 35.86-7.06 53.99-9.46 17.59-2.14 35.45-.54 52.92 2.13z" id="c"/><path d="M359.23 283.94c25.73 2 52.25 6.8 74.25 21.06 20.39 13.2 33.06 36.52 34.26 60.65-1.87 9.2-4.14 18.66-8.27 27.33-.4.26-1.2.93-1.6 1.33-.13-17.06-12.53-30.52-25.32-40.12-23.6-15.87-52.13-21.33-79.85-24.26-28.66-1.87-57.72.93-85.45 8.39-22.13 5.74-43.99 16-59.72 33.2-7.19 7.33-11.86 16.66-15.46 26.12-3.07 8-4 17.2-.53 25.33-.14.8-.4 2.27-.4 2.93-9.6-8.26-17.33-19.19-19.6-31.72-3.73-17.73.94-36.53 11.73-50.92 7.47-8.8 15.73-17.47 26-23.06 11.99-8.14 25.59-13.33 38.92-18.67 24.79-7.33 50.25-13.19 75.98-16.13 11.47-2.79 23.33-1.6 35.06-1.46z" id="d"/><path d="M352.7 329.93c27.72 2.93 56.25 8.39 79.85 24.26 12.79 9.6 25.19 23.06 25.32 40.12-.13 1.47-.53 2.8-.93 4.13-12.66 22.53-33.59 40.26-57.99 48.53-8.93 4.66-18.93 5.99-28.26 8.79-12.93 3.6-26.26 4.14-39.45 5.87-6.67-.54-13.47.8-20-1.07-25.19-1.2-50.12-6.13-74.65-12.26-7.86-1.73-14.79-6.27-22.52-8.13-6.54-3.47-12.8-7.33-19.07-11.2-1.33-2-1.86-4.27-3.46-6-3.47-8.13-2.54-17.33.53-25.33 3.6-9.46 8.27-18.79 15.46-26.12 15.73-17.2 37.59-27.46 59.72-33.2 27.73-7.46 56.79-10.26 85.45-8.39z" id="e"/><path d="M510.99 376.32c6 4.93 13.87 10.13 18.67 16.26 13.47 15.99 20.4 36.79 20.4 57.45.53 25.46-2.67 51.85-15.07 74.65-9.59 17.86-24.43 31.97-40.39 44.39-15.95 12.42-88.46 36.54-118.59 37.6-38.8 3.29-52.33 2.62-82.42 0-13.84-1.2-27.3-4.82-58.12-13.74-30.82-8.93-47.72-12.93-69.72-24.26-18.39-9.47-36.12-21.6-48.12-38.66-10.4-14.53-15.73-32.66-14.66-50.65 2.26-26.4 8.26-53.32 22.26-76.25 5.73 25.99 18.39 50.79 38.52 68.65 2.93 1.87 3.07 5.46 4.27 8.4 8.53 23.86 28.52 42.12 51.45 51.98 23.46 9.87 48.79 14.27 74.12 16 26.52 1.73 53.32 1.6 79.58-2.8 25.59-4.13 50.65-13.54 72.38-27.8 31.59-21.06 50.85-54.71 58.58-91.64 3.33-16.39 5.26-32.92 6.86-49.58z" id="f"/></defs><use xlink:href="#a" fill="#016d01"/><use xlink:href="#a" fill-opacity="0" stroke="#016d01" stroke-width=".09"/><use xlink:href="#b" fill="#00cf39"/><use xlink:href="#b" fill-opacity="0" stroke="#00cf39" stroke-width=".09"/><use xlink:href="#c" fill="#016d01"/><use xlink:href="#c" fill-opacity="0" stroke="#016d01" stroke-width=".09"/><g><use xlink:href="#d" fill="#0f3401"/><use xlink:href="#d" fill-opacity="0" stroke="#0f3401" stroke-width=".09"/></g><g><use xlink:href="#e" fill="#008d00"/><use xlink:href="#e" fill-opacity="0" stroke="#008d00" stroke-width=".09"/></g><g><use xlink:href="#f" fill="#680677"/><use xlink:href="#f" fill-opacity="0" stroke="#680677" stroke-width=".09"/></g></svg>

<?xml version="1.0" encoding="UTF-8" standalone="no"?>
<!DOCTYPE svg PUBLIC "-//W3C//DTD SVG 1.1//EN" "http://www.w3.org/Graphics/SVG/1.1/DTD/svg11.dtd">
<svg version="1.1" xmlns="http://www.w3.org/2000/svg" xmlns:xlink="http://www.w3.org/1999/xlink" preserveAspectRatio="xMidYMid meet" viewBox="101.83300611263574 251.89734899544467 451.2801815577134 359.99742322055" width="300" height="238.77"><defs><path d="M313.09 253.02C335.18 252.55 335.82 253.44 357.26 255.77C378.7 258.1 403.22 262.88 414.28 266.21C429.61 270.87 444.81 277.01 458.41 285.67C478.67 297.8 495.06 316.33 504.26 338.19C509.06 350.19 513.46 363.12 511.73 376.32C510.13 392.98 507.73 409.64 504.39 426.04C496.66 462.96 476 497.89 444.41 518.95C422.68 533.21 397.62 541.21 372.03 545.34C345.77 549.74 318.97 549.87 292.45 548.14C267.12 546.41 241.79 542.01 218.33 532.14C195.4 522.28 175.41 504.02 166.88 480.16C165.68 477.22 165.54 473.63 162.61 471.76C142.48 453.9 129.82 429.1 124.09 403.11C119.29 379.65 123.42 354.59 134.62 333.53C146.62 311 167.14 294.47 189.54 283.01C206.07 275.01 223.53 269.01 241.26 264.61C238 262.32 291 253.49 313.09 253.02Z" id="an6E2MIqB"></path><path d="M336.57 258.34C353.1 258.61 369.63 261.14 385.89 263.81C413.62 268.88 441.08 277.94 464 294.6C486.93 311.13 502.93 336.86 507.73 364.72C507.86 386.71 504.26 409.24 494.53 429.1C487.73 443.63 477.47 456.43 465.2 466.83C448.54 480.42 428.95 490.15 408.42 496.42C387.36 503.35 365.23 506.55 343.23 508.82C317.37 511.35 291.25 511.22 265.52 508.15C239.93 505.08 214.47 498.95 191.8 486.69C173.01 476.69 156.35 462.29 145.15 444.03C138.75 433.77 134.08 422.57 130.49 410.97C128.35 402.44 125.55 393.64 126.35 384.58C126.09 367.92 130.35 351.52 137.82 336.59C150.88 311.93 174.21 294.6 199.14 283.14C230.59 269.54 264.59 262.48 298.44 258.88C311.11 257.28 323.91 257.41 336.57 258.34Z" id="aVACzhqmK"></path><path d="M383.36 282.34C406.29 286.47 429.75 293.94 447.08 310.2C458.14 320.46 465.74 334.19 469.34 348.72C470.8 356.45 473.74 364.59 470.8 372.45C466 394.31 454.27 414.71 437.48 429.5C419.75 444.83 397.62 454.16 374.96 459.1C360.16 462.83 344.97 464.29 329.77 465.23C320.44 465.89 311.24 464.43 302.04 463.89C271.52 460.56 240.46 456.43 212.2 443.77C195.94 436.57 180.61 425.37 172.08 409.24C164.34 393.91 164.34 375.38 169.94 359.25C175.81 342.06 188.74 328.33 203.8 318.6C225.66 303.8 251.12 295.8 276.45 289.67C294.31 285.4 312.31 282.61 330.44 280.21C348.03 278.07 365.89 279.67 383.36 282.34Z" id="b5205Cj1A"></path><path d="M359.23 283.94C384.96 285.94 411.48 290.74 433.48 305C453.87 318.2 466.54 341.52 467.74 365.65C465.87 374.85 463.6 384.31 459.47 392.98C459.07 393.24 458.27 393.91 457.87 394.31C457.74 377.25 445.34 363.79 432.55 354.19C408.95 338.32 380.42 332.86 352.7 329.93C324.04 328.06 294.98 330.86 267.25 338.32C245.12 344.06 223.26 354.32 207.53 371.52C200.34 378.85 195.67 388.18 192.07 397.64C189 405.64 188.07 414.84 191.54 422.97C191.4 423.77 191.14 425.24 191.14 425.9C181.54 417.64 173.81 406.71 171.54 394.18C167.81 376.45 172.48 357.65 183.27 343.26C190.74 334.46 199 325.79 209.27 320.2C221.26 312.06 234.86 306.87 248.19 301.53C272.98 294.2 298.44 288.34 324.17 285.4C335.64 282.61 347.5 283.8 359.23 283.94Z" id="cnqoJE91Z"></path><path d="M352.7 329.93C380.42 332.86 408.95 338.32 432.55 354.19C445.34 363.79 457.74 377.25 457.87 394.31C457.74 395.78 457.34 397.11 456.94 398.44C444.28 420.97 423.35 438.7 398.95 446.97C390.02 451.63 380.02 452.96 370.69 455.76C357.76 459.36 344.43 459.9 331.24 461.63C324.57 461.09 317.77 462.43 311.24 460.56C286.05 459.36 261.12 454.43 236.59 448.3C228.73 446.57 221.8 442.03 214.07 440.17C207.53 436.7 201.27 432.84 195 428.97C193.67 426.97 193.14 424.7 191.54 422.97C188.07 414.84 189 405.64 192.07 397.64C195.67 388.18 200.34 378.85 207.53 371.52C223.26 354.32 245.12 344.06 267.25 338.32C294.98 330.86 324.04 328.06 352.7 329.93Z" id="a8fZd6kugH"></path><path d="M510.99 376.32C516.99 381.25 524.86 386.45 529.66 392.58C543.13 408.57 550.06 429.37 550.06 450.03C550.59 475.49 547.39 501.88 534.99 524.68C525.4 542.54 510.56 556.65 494.6 569.07C478.65 581.49 406.14 605.61 376.01 606.67C337.21 609.96 323.68 609.29 293.59 606.67C279.75 605.47 266.29 601.85 235.47 592.93C204.65 584 187.75 580 165.75 568.67C147.36 559.2 129.63 547.07 117.63 530.01C107.23 515.48 101.9 497.35 102.97 479.36C105.23 452.96 111.23 426.04 125.23 403.11C130.96 429.1 143.62 453.9 163.75 471.76C166.68 473.63 166.82 477.22 168.02 480.16C176.55 504.02 196.54 522.28 219.47 532.14C242.93 542.01 268.26 546.41 293.59 548.14C320.11 549.87 346.91 549.74 373.17 545.34C398.76 541.21 423.82 531.8 445.55 517.54C477.14 496.48 496.4 462.83 504.13 425.9C507.46 409.51 509.39 392.98 510.99 376.32Z" id="a1bBo3Wcg"></path></defs><g><g><use xlink:href="#an6E2MIqB" opacity="1" fill="#016d01" fill-opacity="1"></use><g><use xlink:href="#an6E2MIqB" opacity="1" fill-opacity="0" stroke="#016d01" stroke-width="0.09" stroke-opacity="1"></use></g></g><g><use xlink:href="#aVACzhqmK" opacity="1" fill="#00cf39" fill-opacity="1"></use><g><use xlink:href="#aVACzhqmK" opacity="1" fill-opacity="0" stroke="#00cf39" stroke-width="0.09" stroke-opacity="1"></use></g></g><g><use xlink:href="#b5205Cj1A" opacity="1" fill="#016d01" fill-opacity="1"></use><g><use xlink:href="#b5205Cj1A" opacity="1" fill-opacity="0" stroke="#016d01" stroke-width="0.09" stroke-opacity="1"></use></g></g><g><use xlink:href="#cnqoJE91Z" opacity="1" fill="#0f3401" fill-opacity="1"></use><g><use xlink:href="#cnqoJE91Z" opacity="1" fill-opacity="0" stroke="#0f3401" stroke-width="0.09" stroke-opacity="1"></use></g></g><g><use xlink:href="#a8fZd6kugH" opacity="1" fill="#008d00" fill-opacity="1"></use><g><use xlink:href="#a8fZd6kugH" opacity="1" fill-opacity="0" stroke="#008d00" stroke-width="0.09" stroke-opacity="1"></use></g></g><g><use xlink:href="#a1bBo3Wcg" opacity="1" fill="#680677" fill-opacity="1"></use><g><use xlink:href="#a1bBo3Wcg" opacity="1" fill-opacity="0" stroke="#680677" stroke-width="0.09" stroke-opacity="1"></use></g></g></g></svg>
